X:352
T:Tres morillas me enamoran
Z:Jack Campin, http://www.campin.me.uk/
F:Jack Campin's Nine-Note Tunebook
% last edit 03-02-2013
N:15th century Spanish
B:Cancionero Musical, Madrid 1928
M:2/4
L:1/8
Q:1/4=100
K:APhr
  Ad|cA FG|AG FE |D2 DE|F G<A G|A4-   |A2||
  Ad|cA FG|AB A2-|A2 Ad|cA   FG|AB A2-|A2
|:Ad|cA FG|AG FE |D2 DE|F G<A G|A4-   |A2:|

